X:1     %Music
T:Sir James the Rose
B:Journal of the English Folk Dance and Song Society, Dec 1936
S:Mr. Jas. Walsh at Ferryland, Newfoundland, August 1, 1930
Z:Maud Karpeles
F:http://www.folkinfo.org/songs
M:4/4     %Meter
L:1/8     %
K:Gm
D2 |G3 A B2 (cA) |G2 (FD) F3 c |(d=e) f2 (ed) c2 | A6 
w:Of all the Scot-tish_ north-ern_ chiefs of high_ and war-*like fame,
c2 |(d=e) (fd) (cB) A2 |(cB) (AG) F2 D2 |B2 (GB) (AG) F2 | G6 z2 |]
w: The brav-*est_ was_ Sir James_ the_ Ross, A knight of_ might-*y fame. 